X: 467
T: Chez Seychelles
B: jims roots
M:3/4
L:1/8
R: waltz
Q: 1/4=100
K:Cmaj
V:1 
c cB | "F"A3 B cB | A3 B cd | "C"e3 d cB | "F"A3 B cB | A3 G EF |
"G"G3 F ED | "C"C3 c cB | "F"A2 AB cB | A2 AB cd | "C"e2 ed cB | "F"A2 AB cB |
A2 AG EF | "G"GA GF ED | "C"C2 C || E EF |G2 cG ec | d2 c2- cG |
Ac AG FE | "G"D3 E GA | B2 BB dB | (3cdc B2- BA | GA BA GF |
"C"E3 G AB | c2 ec eB | (3ded c2- cG | Ac AG AG | "F"F2 FG FE |
FG Ac de | "C"dc AG Ac | "G"(3BcB AG FG | "C"E3 |]
% abcbook-tune_id 6298c24580815939ae13d138


% abcbook-boost 0
% abcbook-tablature 
% abcbook-transpose 
% abcbook-lastupdated 1654178373689
% abcbook-soundfonts 
% abcbook-repeats 1


